src/topics/icons/gusto.svg

<svg height="250" preserveAspectRatio="xMidYMid" viewBox="0 0 256 250" width="256" xmlns="http://www.w3.org/2000/svg"><g fill="#ef0000"><path d="m139.964707 249.179593c-63.6203213 0-115.5769171-51.956596-115.5769171-115.576918 0-63.6203215 51.9565958-115.5769173 115.5769171-115.5769173 63.620322 0 115.576917 51.9565958 115.576917 115.5769173 0 63.620322-51.956595 115.576918-115.576917 115.576918zm0-223.024572c-59.3789665 0-107.4476538 48.0686873-107.4476538 107.447654 0 59.378967 48.0686873 107.447654 107.4476538 107.447654 59.378966 0 107.447654-48.068687 107.447654-107.447654 0-59.3789667-48.422134-107.447654-107.447654-107.447654z"/><path d="m116.283809 249.179593c-63.6203207 0-115.57691654-51.956596-115.57691654-115.576918 0-63.6203215 51.95659584-115.5769173 115.57691654-115.5769173 63.620322 0 115.576918 51.9565958 115.576918 115.5769173 0 63.620322-51.956596 115.576918-115.576918 115.576918zm0-223.024572c-59.3789659 0-107.44765324 48.0686873-107.44765324 107.447654 0 59.378967 48.06868734 107.447654 107.44765324 107.447654 59.378967 0 107.447655-48.068687 107.447655-107.447654 0-59.3789667-48.068688-107.447654-107.447655-107.447654z"/><path d="m128.654428 231.860727c-63.6203216 0-115.5769174-51.956596-115.5769174-115.576918 0-63.6203207 51.9565958-115.57691654 115.5769174-115.57691654 63.620321 0 115.576917 51.95659584 115.576917 115.57691654 0 63.620322-51.956596 115.576918-115.576917 115.576918zm0-223.02457124c-59.3789669 0-107.4476542 48.06868734-107.4476542 107.44765324 0 59.378967 48.0686873 107.447655 107.4476542 107.447655 59.378967 0 107.447654-48.068688 107.447654-107.447655 0-59.3789659-48.068687-107.44765324-107.447654-107.44765324z"/><path d="m164.475711 137.844029c-2.340286 2.474125-4.589489 4.948248-6.838693 7.422372-9.543048 10.603387-16.965418 18.379203-29.336037 18.379203-22.620558 0-40.9997621-18.379203-40.9997621-40.999762s18.3792041-40.9997628 40.9997621-40.9997628c13.784403 0 26.861914 7.4223708 34.637731 19.4395418 2.474124 3.534463 6.715478 4.241356 10.24994 2.474125 3.534463-2.474125 4.241356-6.715479 2.474124-10.2499413-10.24994-16.6119728-27.922252-26.155021-47.361795-26.155021-30.7498215 0-55.8445038 24.7412362-55.8445038 55.4910583 0 30.749822 25.0946823 55.844504 55.8445038 55.844504 18.732651 0 29.336037-11.310279 39.585978-23.327451.476827-.52451.947221-1.042586 1.413785-1.555097v15.692946c0 3.534463 3.181017 7.068925 7.068925 7.068925 4.594801 0 7.775817-3.181017 7.068924-7.068925v-38.525638c0-3.534463-3.181016-7.068925-7.068924-7.068925h-36.051515c-3.534463 0-7.068925 3.534462-7.068925 7.068925 0 3.534461 3.181016 7.068923 7.068925 7.068923z"/></g></svg>

<?xml version="1.0" encoding="UTF-8"?>
<svg width="256px" height="250px" viewBox="0 0 256 250" version="1.1" xmlns="http://www.w3.org/2000/svg" xmlns:xlink="http://www.w3.org/1999/xlink" preserveAspectRatio="xMidYMid">
	<g fill="#EF0000">
		<path d="M139.964707,249.179593 C76.3443857,249.179593 24.3877899,197.222997 24.3877899,133.602675 C24.3877899,69.9823535 76.3443857,18.0257577 139.964707,18.0257577 C203.585029,18.0257577 255.541624,69.9823535 255.541624,133.602675 C255.541624,197.222997 203.585029,249.179593 139.964707,249.179593 L139.964707,249.179593 L139.964707,249.179593 Z M139.964707,26.155021 C80.5857405,26.155021 32.5170532,74.2237083 32.5170532,133.602675 C32.5170532,192.981642 80.5857405,241.050329 139.964707,241.050329 C199.343673,241.050329 247.412361,192.981642 247.412361,133.602675 C247.412361,74.2237083 198.990227,26.155021 139.964707,26.155021 L139.964707,26.155021 L139.964707,26.155021 Z"></path>
		<path d="M116.283809,249.179593 C52.6634883,249.179593 0.70689246,197.222997 0.70689246,133.602675 C0.70689246,69.9823535 52.6634883,18.0257577 116.283809,18.0257577 C179.904131,18.0257577 231.860727,69.9823535 231.860727,133.602675 C231.860727,197.222997 179.904131,249.179593 116.283809,249.179593 L116.283809,249.179593 L116.283809,249.179593 Z M116.283809,26.155021 C56.9048431,26.155021 8.83615576,74.2237083 8.83615576,133.602675 C8.83615576,192.981642 56.9048431,241.050329 116.283809,241.050329 C175.662776,241.050329 223.731464,192.981642 223.731464,133.602675 C223.731464,74.2237083 175.662776,26.155021 116.283809,26.155021 L116.283809,26.155021 L116.283809,26.155021 Z"></path>
		<path d="M128.654428,231.860727 C65.0341064,231.860727 13.0775106,179.904131 13.0775106,116.283809 C13.0775106,52.6634883 65.0341064,0.70689246 128.654428,0.70689246 C192.274749,0.70689246 244.231345,52.6634883 244.231345,116.283809 C244.231345,179.904131 192.274749,231.860727 128.654428,231.860727 L128.654428,231.860727 L128.654428,231.860727 Z M128.654428,8.83615576 C69.2754611,8.83615576 21.2067738,56.9048431 21.2067738,116.283809 C21.2067738,175.662776 69.2754611,223.731464 128.654428,223.731464 C188.033395,223.731464 236.102082,175.662776 236.102082,116.283809 C236.102082,56.9048431 188.033395,8.83615576 128.654428,8.83615576 L128.654428,8.83615576 L128.654428,8.83615576 Z"></path>
		<path d="M164.475711,137.844029 C162.135425,140.318154 159.886222,142.792277 157.637018,145.266401 C148.09397,155.869788 140.6716,163.645604 128.300981,163.645604 C105.680423,163.645604 87.3012189,145.266401 87.3012189,122.645842 C87.3012189,100.025283 105.680423,81.6460792 128.300981,81.6460792 C142.085384,81.6460792 155.162895,89.06845 162.938712,101.085621 C165.412836,104.620084 169.65419,105.326977 173.188652,103.559746 C176.723115,101.085621 177.430008,96.844267 175.662776,93.3098047 C165.412836,76.6978319 147.740524,67.1547837 128.300981,67.1547837 C97.5511595,67.1547837 72.4564772,91.8960199 72.4564772,122.645842 C72.4564772,153.395664 97.5511595,178.490346 128.300981,178.490346 L128.300981,178.490346 C147.033632,178.490346 157.637018,167.180067 167.886959,155.162895 C168.363786,154.638385 168.83418,154.120309 169.300744,153.607798 L169.300744,169.300744 C169.300744,172.835207 172.481761,176.369669 176.369669,176.369669 L176.369669,176.369669 C180.96447,176.369669 184.145486,173.188652 183.438593,169.300744 L183.438593,130.775106 C183.438593,127.240643 180.257577,123.706181 176.369669,123.706181 L140.318154,123.706181 C136.783691,123.706181 133.249229,127.240643 133.249229,130.775106 C133.249229,134.309567 136.430245,137.844029 140.318154,137.844029 L164.475711,137.844029 L164.475711,137.844029 Z"></path>
	</g>
</svg>
